en/template-builder/_images/buttons/view-example.svg

<svg width="122" height="36" viewBox="0 0 122 36" fill="none" xmlns="http://www.w3.org/2000/svg">
<path d="M0 8C0 3.58172 3.58172 0 8 0H114C118.418 0 122 3.58172 122 8V28C122 32.4183 118.418 36 114 36H8C3.58172 36 0 32.4183 0 28V8Z" fill="#F0F2F3"/>
<path d="M22.1674 23H19.8854L16.3574 12.962H18.1214L21.1034 21.572L24.1274 12.962H25.6954L22.1674 23ZM27.5378 14.81C27.2391 14.81 26.9918 14.712 26.7958 14.516C26.6091 14.32 26.5158 14.0867 26.5158 13.816C26.5158 13.5453 26.6091 13.312 26.7958 13.116C26.9918 12.92 27.2391 12.822 27.5378 12.822C27.8271 12.822 28.0651 12.92 28.2518 13.116C28.4478 13.312 28.5458 13.5453 28.5458 13.816C28.5458 14.0867 28.4478 14.32 28.2518 14.516C28.0651 14.712 27.8271 14.81 27.5378 14.81ZM28.3498 15.734V23H26.7258V15.734H28.3498ZM36.2467 22.468C36.1441 22.5333 36.0181 22.608 35.8687 22.692C35.7194 22.7667 35.5421 22.8367 35.3367 22.902C35.1314 22.9673 34.8934 23.0233 34.6227 23.07C34.3521 23.1167 34.0441 23.14 33.6987 23.14C32.3641 23.14 31.3654 22.8087 30.7027 22.146C30.0494 21.4833 29.7227 20.5547 29.7227 19.36C29.7227 18.772 29.8114 18.2447 29.9887 17.778C30.1661 17.3113 30.4134 16.9193 30.7307 16.602C31.0481 16.2753 31.4261 16.028 31.8647 15.86C32.3034 15.6827 32.7841 15.594 33.3067 15.594C33.8481 15.594 34.3334 15.6827 34.7627 15.86C35.2014 16.0373 35.5607 16.3033 35.8407 16.658C36.1207 17.0127 36.3121 17.4513 36.4147 17.974C36.5267 18.4967 36.5314 19.108 36.4287 19.808H31.4027C31.4681 20.4707 31.6874 20.97 32.0607 21.306C32.4341 21.6327 33.0174 21.796 33.8107 21.796C34.3894 21.796 34.8701 21.726 35.2527 21.586C35.6447 21.4367 35.9761 21.2827 36.2467 21.124V22.468ZM33.3067 16.882C32.8307 16.882 32.4294 17.0267 32.1027 17.316C31.7761 17.6053 31.5614 18.0347 31.4587 18.604H34.8747C34.8934 18.016 34.7627 17.582 34.4827 17.302C34.2027 17.022 33.8107 16.882 33.3067 16.882ZM46.2553 23H43.9313L42.5453 17.778L41.1453 23H38.8493L37.2533 15.734H38.9193L40.1513 21.698L41.7893 15.734H43.4833L45.0793 21.656L46.3113 15.734H47.8513L46.2553 23ZM58.2585 22.468C58.1558 22.5333 58.0298 22.608 57.8805 22.692C57.7311 22.7667 57.5538 22.8367 57.3485 22.902C57.1431 22.9673 56.9051 23.0233 56.6345 23.07C56.3638 23.1167 56.0558 23.14 55.7105 23.14C54.3758 23.14 53.3771 22.8087 52.7145 22.146C52.0611 21.4833 51.7345 20.5547 51.7345 19.36C51.7345 18.772 51.8231 18.2447 52.0005 17.778C52.1778 17.3113 52.4251 16.9193 52.7425 16.602C53.0598 16.2753 53.4378 16.028 53.8765 15.86C54.3151 15.6827 54.7958 15.594 55.3185 15.594C55.8598 15.594 56.3451 15.6827 56.7745 15.86C57.2131 16.0373 57.5725 16.3033 57.8525 16.658C58.1325 17.0127 58.3238 17.4513 58.4265 17.974C58.5385 18.4967 58.5431 19.108 58.4405 19.808H53.4145C53.4798 20.4707 53.6991 20.97 54.0725 21.306C54.4458 21.6327 55.0291 21.796 55.8225 21.796C56.4011 21.796 56.8818 21.726 57.2645 21.586C57.6565 21.4367 57.9878 21.2827 58.2585 21.124V22.468ZM55.3185 16.882C54.8425 16.882 54.4411 17.0267 54.1145 17.316C53.7878 17.6053 53.5731 18.0347 53.4705 18.604H56.8865C56.9051 18.016 56.7745 17.582 56.4945 17.302C56.2145 17.022 55.8225 16.882 55.3185 16.882ZM62.3327 20.326L60.5687 23H58.9727L61.5347 19.22L59.2247 15.734H61.0727L62.6687 18.128L64.2227 15.734H65.8187L63.4667 19.248L65.9587 23H64.1107L62.3327 20.326ZM71.1614 21.726C71.0868 21.894 70.9841 22.062 70.8534 22.23C70.7321 22.398 70.5781 22.552 70.3914 22.692C70.2141 22.8227 69.9994 22.93 69.7474 23.014C69.4954 23.098 69.2014 23.14 68.8654 23.14C68.5481 23.14 68.2541 23.0933 67.9834 23C67.7128 22.916 67.4748 22.7853 67.2694 22.608C67.0734 22.4307 66.9148 22.2113 66.7934 21.95C66.6814 21.6793 66.6254 21.3713 66.6254 21.026C66.6254 20.2327 66.9194 19.64 67.5074 19.248C68.0954 18.8467 68.9261 18.646 69.9994 18.646H71.1054V18.198C71.1054 17.722 70.9841 17.3953 70.7414 17.218C70.4988 17.0313 70.0974 16.938 69.5374 16.938C69.0614 16.938 68.6134 17.008 68.1934 17.148C67.7828 17.2787 67.4188 17.4327 67.1014 17.61V16.252C67.3908 16.0933 67.7734 15.944 68.2494 15.804C68.7254 15.664 69.2434 15.594 69.8034 15.594C70.7368 15.594 71.4554 15.79 71.9594 16.182C72.4728 16.5647 72.7294 17.1807 72.7294 18.03V21.824C72.7294 21.908 72.7294 22.006 72.7294 22.118C72.7388 22.2207 72.7434 22.328 72.7434 22.44C72.7528 22.552 72.7621 22.6593 72.7714 22.762C72.7808 22.8553 72.7901 22.9347 72.7994 23H71.3014C71.2734 22.8693 71.2454 22.6873 71.2174 22.454C71.1988 22.2207 71.1848 22.0107 71.1754 21.824L71.1614 21.726ZM69.3134 21.88C69.6588 21.88 69.9434 21.81 70.1674 21.67C70.4008 21.5207 70.5874 21.3527 70.7274 21.166C70.8674 20.97 70.9654 20.7787 71.0214 20.592C71.0774 20.4053 71.1054 20.2747 71.1054 20.2V19.71H70.0974C69.4534 19.71 68.9821 19.8127 68.6834 20.018C68.3848 20.214 68.2354 20.494 68.2354 20.858C68.2354 21.1753 68.3241 21.4273 68.5014 21.614C68.6881 21.7913 68.9588 21.88 69.3134 21.88ZM76.1053 23H74.4813V15.734H75.9653L76.0773 16.924H76.1053C76.3013 16.5413 76.586 16.224 76.9593 15.972C77.342 15.72 77.8273 15.594 78.4153 15.594C78.9473 15.594 79.4 15.72 79.7733 15.972C80.1466 16.224 80.3986 16.6067 80.5293 17.12C80.7346 16.6533 81.0426 16.2847 81.4533 16.014C81.864 15.734 82.3633 15.594 82.9513 15.594C83.278 15.594 83.5766 15.6407 83.8473 15.734C84.1273 15.8273 84.3653 15.972 84.5613 16.168C84.7573 16.3547 84.9113 16.5927 85.0233 16.882C85.1353 17.1713 85.1913 17.512 85.1913 17.904V23H83.5533V18.128C83.5533 17.708 83.4506 17.4047 83.2453 17.218C83.04 17.0313 82.76 16.938 82.4053 16.938C81.976 16.938 81.6213 17.0547 81.3413 17.288C81.0706 17.5213 80.842 17.8013 80.6553 18.128V23H79.0173V18.016C79.0173 17.596 78.9146 17.3113 78.7093 17.162C78.504 17.0127 78.2286 16.938 77.8833 16.938C77.4353 16.938 77.076 17.0407 76.8053 17.246C76.5346 17.442 76.3013 17.6987 76.1053 18.016V23ZM90.9404 23.14C90.3897 23.14 89.9137 23.0187 89.5124 22.776C89.1204 22.524 88.803 22.188 88.5604 21.768V25.478H86.9364V15.734H88.4204L88.5324 17.022C88.775 16.5833 89.097 16.238 89.4984 15.986C89.8997 15.7247 90.3897 15.594 90.9684 15.594C91.3977 15.594 91.8037 15.6733 92.1864 15.832C92.5784 15.9813 92.919 16.2147 93.2084 16.532C93.4977 16.84 93.7264 17.232 93.8944 17.708C94.0717 18.1747 94.1604 18.7253 94.1604 19.36C94.1604 20.004 94.0717 20.564 93.8944 21.04C93.7264 21.5067 93.493 21.8987 93.1944 22.216C92.905 22.524 92.5644 22.7573 92.1724 22.916C91.7804 23.0653 91.3697 23.14 90.9404 23.14ZM90.5484 21.782C91.127 21.782 91.5937 21.586 91.9484 21.194C92.3124 20.7927 92.4944 20.1813 92.4944 19.36C92.4944 18.548 92.3124 17.9413 91.9484 17.54C91.5937 17.1387 91.1317 16.938 90.5624 16.938C90.273 16.938 90.007 16.9893 89.7644 17.092C89.5217 17.1853 89.307 17.3347 89.1204 17.54C88.943 17.7453 88.803 18.002 88.7004 18.31C88.5977 18.6087 88.5464 18.9587 88.5464 19.36C88.5464 19.7707 88.5977 20.13 88.7004 20.438C88.803 20.7367 88.943 20.9887 89.1204 21.194C89.2977 21.39 89.5077 21.5393 89.7504 21.642C90.0024 21.7353 90.2684 21.782 90.5484 21.782ZM97.16 12.962V23H95.536V12.962H97.16ZM105.057 22.468C104.955 22.5333 104.829 22.608 104.679 22.692C104.53 22.7667 104.353 22.8367 104.147 22.902C103.942 22.9673 103.704 23.0233 103.433 23.07C103.163 23.1167 102.855 23.14 102.509 23.14C101.175 23.14 100.176 22.8087 99.5133 22.146C98.86 21.4833 98.5333 20.5547 98.5333 19.36C98.5333 18.772 98.622 18.2447 98.7993 17.778C98.9766 17.3113 99.224 16.9193 99.5413 16.602C99.8586 16.2753 100.237 16.028 100.675 15.86C101.114 15.6827 101.595 15.594 102.117 15.594C102.659 15.594 103.144 15.6827 103.573 15.86C104.012 16.0373 104.371 16.3033 104.651 16.658C104.931 17.0127 105.123 17.4513 105.225 17.974C105.337 18.4967 105.342 19.108 105.239 19.808H100.213C100.279 20.4707 100.498 20.97 100.871 21.306C101.245 21.6327 101.828 21.796 102.621 21.796C103.2 21.796 103.681 21.726 104.063 21.586C104.455 21.4367 104.787 21.2827 105.057 21.124V22.468ZM102.117 16.882C101.641 16.882 101.24 17.0267 100.913 17.316C100.587 17.6053 100.372 18.0347 100.269 18.604H103.685C103.704 18.016 103.573 17.582 103.293 17.302C103.013 17.022 102.621 16.882 102.117 16.882Z" fill="black"/>
</svg>

<svg xmlns="http://www.w3.org/2000/svg" width="122" height="36" fill="none"><path fill="#F0F2F3" d="M0 8a8 8 0 0 1 8-8h106a8 8 0 0 1 8 8v20a8 8 0 0 1-8 8H8a8 8 0 0 1-8-8V8Z"/><path fill="#000" d="M22.167 23h-2.282l-3.528-10.038h1.764l2.982 8.61 3.024-8.61h1.568L22.167 23Zm5.37-8.19c-.298 0-.545-.098-.741-.294a.98.98 0 0 1-.28-.7.98.98 0 0 1 .28-.7c.196-.196.443-.294.742-.294.29 0 .527.098.714.294.196.196.294.43.294.7 0 .27-.098.504-.294.7a.943.943 0 0 1-.714.294Zm.813.924V23h-1.624v-7.266h1.624Zm7.897 6.734c-.103.065-.229.14-.378.224-.15.075-.327.145-.532.21a5.407 5.407 0 0 1-1.638.238c-1.335 0-2.334-.331-2.996-.994-.654-.663-.98-1.591-.98-2.786 0-.588.088-1.115.266-1.582a3.29 3.29 0 0 1 .742-1.176 3.11 3.11 0 0 1 1.134-.742c.438-.177.92-.266 1.442-.266.541 0 1.026.089 1.456.266.438.177.798.443 1.078.798.28.355.471.793.574 1.316.112.523.116 1.134.014 1.834h-5.026c.065.663.284 1.162.658 1.498.373.327.956.49 1.75.49.578 0 1.06-.07 1.442-.21.392-.15.723-.303.994-.462v1.344Zm-2.94-5.586c-.476 0-.878.145-1.204.434-.327.29-.542.719-.644 1.288h3.416c.018-.588-.112-1.022-.392-1.302s-.672-.42-1.176-.42ZM46.255 23h-2.324l-1.386-5.222-1.4 5.222H38.85l-1.596-7.266h1.666l1.232 5.964 1.638-5.964h1.694l1.596 5.922 1.232-5.922h1.54L46.255 23Zm12.003-.532c-.102.065-.228.14-.378.224-.149.075-.326.145-.532.21a5.414 5.414 0 0 1-1.637.238c-1.335 0-2.334-.331-2.996-.994-.654-.663-.98-1.591-.98-2.786 0-.588.088-1.115.266-1.582.177-.467.424-.859.742-1.176a3.11 3.11 0 0 1 1.133-.742c.44-.177.92-.266 1.443-.266.54 0 1.026.089 1.456.266.438.177.797.443 1.078.798.28.355.47.793.573 1.316.112.523.117 1.134.014 1.834h-5.026c.066.663.285 1.162.658 1.498.374.327.957.49 1.75.49.58 0 1.06-.07 1.442-.21a6.69 6.69 0 0 0 .994-.462v1.344Zm-2.94-5.586c-.475 0-.877.145-1.203.434-.327.29-.542.719-.645 1.288h3.416c.02-.588-.111-1.022-.392-1.302-.28-.28-.672-.42-1.175-.42Zm7.015 3.444L60.569 23h-1.596l2.562-3.78-2.31-3.486h1.848l1.596 2.394 1.554-2.394h1.596l-2.352 3.514L65.959 23H64.11l-1.778-2.674Zm8.828 1.4a2.435 2.435 0 0 1-.308.504 2.165 2.165 0 0 1-.462.462c-.177.13-.392.238-.644.322a2.792 2.792 0 0 1-.882.126 2.69 2.69 0 0 1-.882-.14 1.975 1.975 0 0 1-.714-.392 2.024 2.024 0 0 1-.476-.658 2.399 2.399 0 0 1-.168-.924c0-.793.294-1.386.882-1.778.588-.401 1.42-.602 2.492-.602h1.106v-.448c0-.476-.12-.803-.364-.98-.242-.187-.644-.28-1.204-.28-.476 0-.924.07-1.344.21-.41.13-.774.285-1.092.462v-1.358c.29-.159.672-.308 1.148-.448.476-.14.994-.21 1.554-.21.934 0 1.652.196 2.156.588.514.383.77.999.77 1.848v4.088c.01.103.014.21.014.322l.028.322.028.238h-1.498a6.4 6.4 0 0 1-.084-.546 21.79 21.79 0 0 1-.042-.63l-.014-.098Zm-1.848.154c.346 0 .63-.07.854-.21.234-.15.42-.317.56-.504.14-.196.238-.387.294-.574a1.63 1.63 0 0 0 .084-.392v-.49h-1.008c-.644 0-1.115.103-1.414.308a.946.946 0 0 0-.448.84c0 .317.09.57.266.756.187.177.458.266.812.266ZM76.105 23h-1.624v-7.266h1.484l.112 1.19h.028c.196-.383.481-.7.854-.952.383-.252.868-.378 1.456-.378.532 0 .985.126 1.358.378.374.252.626.635.756 1.148.206-.467.514-.835.924-1.106.411-.28.91-.42 1.498-.42.327 0 .626.047.896.14.28.093.518.238.714.434.196.187.35.425.462.714.112.29.168.63.168 1.022V23h-1.638v-4.872c0-.42-.102-.723-.308-.91-.205-.187-.485-.28-.84-.28-.429 0-.784.117-1.064.35-.27.233-.499.513-.686.84V23h-1.638v-4.984c0-.42-.102-.705-.308-.854-.205-.15-.48-.224-.826-.224-.448 0-.807.103-1.078.308a2.66 2.66 0 0 0-.7.77V23Zm14.835.14c-.55 0-1.026-.121-1.428-.364a2.903 2.903 0 0 1-.952-1.008v3.71h-1.624v-9.744h1.484l.112 1.288c.243-.439.565-.784.966-1.036.402-.261.892-.392 1.47-.392.43 0 .836.08 1.218.238.392.15.733.383 1.022.7.29.308.518.7.686 1.176.178.467.266 1.017.266 1.652 0 .644-.088 1.204-.266 1.68a3.341 3.341 0 0 1-.7 1.176c-.289.308-.63.541-1.022.7-.392.15-.802.224-1.232.224Zm-.392-1.358c.579 0 1.046-.196 1.4-.588.364-.401.546-1.013.546-1.834 0-.812-.182-1.419-.546-1.82-.354-.401-.816-.602-1.386-.602-.289 0-.555.051-.798.154a1.677 1.677 0 0 0-.644.448 2.25 2.25 0 0 0-.42.77 3.232 3.232 0 0 0-.154 1.05c0 .41.052.77.154 1.078.103.299.243.55.42.756.178.196.388.345.63.448.252.093.518.14.798.14Zm6.612-8.82V23h-1.624V12.962h1.624Zm7.897 9.506a7.62 7.62 0 0 1-.378.224 3.665 3.665 0 0 1-.532.21 5.384 5.384 0 0 1-1.638.238c-1.334 0-2.333-.331-2.996-.994-.653-.663-.98-1.591-.98-2.786 0-.588.089-1.115.266-1.582.178-.467.425-.859.742-1.176a3.114 3.114 0 0 1 1.134-.742c.439-.177.92-.266 1.442-.266a3.78 3.78 0 0 1 1.456.266c.439.177.798.443 1.078.798.28.355.472.793.574 1.316.112.523.117 1.134.014 1.834h-5.026c.066.663.285 1.162.658 1.498.374.327.957.49 1.75.49.579 0 1.06-.07 1.442-.21.392-.15.724-.303.994-.462v1.344Zm-2.94-5.586c-.476 0-.877.145-1.204.434-.326.29-.541.719-.644 1.288h3.416c.019-.588-.112-1.022-.392-1.302s-.672-.42-1.176-.42Z"/></svg>
